to-be-renamed/bl_icons_515.svg

<?xml version="1.0" encoding="UTF-8" standalone="no"?>
<svg
   xmlns:dc="http://purl.org/dc/elements/1.1/"
   xmlns:cc="http://creativecommons.org/ns#"
   xmlns:rdf="http://www.w3.org/1999/02/22-rdf-syntax-ns#"
   xmlns:svg="http://www.w3.org/2000/svg"
   xmlns="http://www.w3.org/2000/svg"
   xmlns:sodipodi="http://sodipodi.sourceforge.net/DTD/sodipodi-0.dtd"
   xmlns:inkscape="http://www.inkscape.org/namespaces/inkscape"
   id="Layer_1"
   x="0"
   y="0"
   enable-background="new 0 0 20 20"
   version="1.1"
   viewBox="0 0 20 20"
   xml:space="preserve"
   sodipodi:docname="bl_icons_515.svg"
   inkscape:version="1.0.2 (e86c870879, 2021-01-15, custom)"><metadata
     id="metadata7"><rdf:RDF><cc:Work
         rdf:about=""><dc:format>image/svg+xml</dc:format><dc:type
           rdf:resource="http://purl.org/dc/dcmitype/StillImage" /><dc:title></dc:title></cc:Work></rdf:RDF></metadata><defs
     id="defs5" /><sodipodi:namedview
     pagecolor="#808080"
     bordercolor="#666666"
     borderopacity="1"
     objecttolerance="10"
     gridtolerance="10"
     guidetolerance="10"
     inkscape:pageopacity="0"
     inkscape:pageshadow="2"
     inkscape:window-width="1750"
     inkscape:window-height="991"
     id="namedview3"
     showgrid="false"
     inkscape:pagecheckerboard="true"
     inkscape:zoom="25.577418"
     inkscape:cx="-0.44644607"
     inkscape:cy="8.0087009"
     inkscape:window-x="87"
     inkscape:window-y="37"
     inkscape:window-maximized="0"
     inkscape:current-layer="Layer_1"
     inkscape:document-rotation="0" /><path
     inkscape:connector-curvature="0"
     style="color:#000000;font-style:normal;font-variant:normal;font-weight:normal;font-stretch:normal;font-size:medium;line-height:normal;font-family:sans-serif;font-variant-ligatures:normal;font-variant-position:normal;font-variant-caps:normal;font-variant-numeric:normal;font-variant-alternates:normal;font-feature-settings:normal;text-indent:0;text-align:start;text-decoration:none;text-decoration-line:none;text-decoration-style:solid;text-decoration-color:#000000;letter-spacing:normal;word-spacing:normal;text-transform:none;writing-mode:lr-tb;direction:ltr;text-orientation:mixed;dominant-baseline:auto;baseline-shift:baseline;text-anchor:start;white-space:normal;shape-padding:0;clip-rule:nonzero;display:inline;overflow:visible;visibility:visible;isolation:auto;mix-blend-mode:normal;color-interpolation:sRGB;color-interpolation-filters:linearRGB;solid-color:#000000;solid-opacity:1;vector-effect:none;fill:#ffffff;fill-opacity:1;fill-rule:evenodd;stroke:none;stroke-width:1;stroke-linecap:round;stroke-linejoin:round;stroke-miterlimit:4;stroke-dasharray:none;stroke-dashoffset:0;stroke-opacity:1;marker:none;color-rendering:auto;image-rendering:auto;shape-rendering:auto;text-rendering:auto;enable-background:accumulate"
     d="M 7.5,3 A 0.50005,0.50005 0 0 0 7,3.5 v 3 A 0.50005,0.50005 0 0 0 7.5,7 h 3 A 0.50005,0.50005 0 0 0 11,6.5 V 5 h 0.5 c 1.29307,0 2.42587,0.35206 3.21875,1.00977 C 15.51163,6.66747 16,7.62406 16,9 16,10.58333 15.21891,12.05511 13.75977,13.16406 12.30062,14.27301 10.15909,15 7.5,15 H 7 V 13.5 A 0.50005,0.50005 0 0 0 6.5,13 h -3 A 0.50005,0.50005 0 0 0 3,13.5 v 3 A 0.50005,0.50005 0 0 0 3.5,17 h 3 A 0.50005,0.50005 0 0 0 7,16.5 V 16 h 0.5 c 2.84091,0 5.19938,-0.77301 6.86523,-2.03906 C 16.03109,12.69489 17,10.91667 17,9 17,7.37594 16.37282,6.08253 15.35742,5.24023 14.34202,4.39794 12.97378,4 11.5,4 H 11 V 3.5 A 0.50005,0.50005 0 0 0 10.5,3 Z M 8,4 h 2 V 6 H 8 Z M 4,14 h 2 v 2 H 4 Z"
     id="path6006" /></svg>

<svg xmlns="http://www.w3.org/2000/svg" viewBox="0 0 20 20" xml:space="preserve">
    <path style="color:#000;font-style:normal;font-variant:normal;font-weight:400;font-stretch:normal;font-size:medium;line-height:normal;font-family:sans-serif;font-variant-ligatures:normal;font-variant-position:normal;font-variant-caps:normal;font-variant-numeric:normal;font-variant-alternates:normal;font-feature-settings:normal;text-indent:0;text-align:start;text-decoration:none;text-decoration-line:none;text-decoration-style:solid;text-decoration-color:#000;letter-spacing:normal;word-spacing:normal;text-transform:none;writing-mode:lr-tb;direction:ltr;text-orientation:mixed;dominant-baseline:auto;baseline-shift:baseline;text-anchor:start;white-space:normal;shape-padding:0;clip-rule:nonzero;display:inline;overflow:visible;visibility:visible;isolation:auto;mix-blend-mode:normal;color-interpolation:sRGB;color-interpolation-filters:linearRGB;solid-color:#000;solid-opacity:1;vector-effect:none;fill:#fff;fill-opacity:1;fill-rule:evenodd;stroke:none;stroke-width:1;stroke-linecap:round;stroke-linejoin:round;stroke-miterlimit:4;stroke-dasharray:none;stroke-dashoffset:0;stroke-opacity:1;marker:none;color-rendering:auto;image-rendering:auto;shape-rendering:auto;text-rendering:auto;enable-background:accumulate" d="M7.5 3a.5.5 0 0 0-.5.5v3a.5.5 0 0 0 .5.5h3a.5.5 0 0 0 .5-.5V5h.5c1.293 0 2.426.352 3.219 1.01C15.512 6.667 16 7.624 16 9c0 1.583-.781 3.055-2.24 4.164C12.3 14.273 10.16 15 7.5 15H7v-1.5a.5.5 0 0 0-.5-.5h-3a.5.5 0 0 0-.5.5v3a.5.5 0 0 0 .5.5h3a.5.5 0 0 0 .5-.5V16h.5c2.84 0 5.2-.773 6.865-2.04C16.031 12.696 17 10.918 17 9c0-1.624-.627-2.917-1.643-3.76C14.342 4.398 12.974 4 11.5 4H11v-.5a.5.5 0 0 0-.5-.5zM8 4h2v2H8zM4 14h2v2H4z"/>
</svg>
